X: 62
T:Three Little Blackberries
% Nottingham Music Database
S:Newcastle Cloggies
M:4/4
L:1/8
R:Hornpipe
K:D
FG|"D"A2A2 "G"B2B2|"D"A^GAd f2df|"A7"e^def g2e2|"D"ddfd "A7"BGFG|
"D"A2A2 "G"B2B2|"D"A^GAd f2df|"A"e2ef "E7"eefe|"A"a2A2 A2:|:
a2/3b2/3a2/3|"A7"gece Aege|"D"d2A2 -A2 d2/3e2/3d2/3|"A7"c2a2 -a2/3g2/3f2/3 e2/3c2/3B2/3|"D"A2f2 -f2 a2/3b2/3a2/3|
"A7"gece Aege|"D"d2A2 -A2dc|"G"Bdag "A7"feBc|"D"d2f2 d2:|


